X:1
T:Title
%%score { ( 1 3 ) | ( 2 4 ) }
L:1/8
M:3/4
K:Eb
V:1 treble nm="Grand Piano"
V:3 treble 
V:2 bass 
V:4 bass 
V:1
 z2 z2[Q:1/4=100] [EG][FA] | [GB]3 [EG] [GB][GB] | [Ge]2 [GB]2 EF | G3 [Ac] [GB][EG] | %4
[M:2/4] [DF]4 |[M:1/4] [EG][FA] |[M:3/4] [GB]3 [GB] [Ge][GB] | [Bd]2 c2 dc | B3 A [EG][DF] | %9
[M:2/4] E4 |[M:4/4] z2 [Ge]4 z2 | (3[FA][GB][Ac] [GB]4 G2 | z2 [Fd]6 | z2 [GB]6 | z2 [Ge]4 z2 | %15
 [EGB][EGe] [EBd]4 [EAc]2 | z2 [=GB]6 |[M:3/4] [Ac][Ad] e2- [Ae-][Ae-] | [Ge]2 z2 z2 |] %19
V:2
 z2 z2 [E,B,][E,B,] | [E,E]3 [E,B,] [E,E][E,E] | [E,B,]2 [E,E]2 [E,G,][E,A,E] | %3
 [E,B,E]3 [E,E] [E,E][E,B,] |[M:2/4] [B,,B,]4 |[M:1/4] [E,B,][E,B,] | %6
[M:3/4] [E,E]3 [E,E] [E,B,][E,E] | [A,E]2 [A,EA]2 [A,EA][=A,E_G] | %8
 [B,EG]3 [B,F][K:bass] [B,,B,][B,,A,] |[M:2/4] [E,G,]4 |[M:4/4] [E,G,E]>[E,G,E] [E,B,]E, E,E,E,E, | %11
 (3:2:2[E,B,]2 [E,E] [E,E]4 [E,B,E]2 | [E,G,E][E,G,E][B,,B,]B,, B,,B,,B,,[B,,B,] | %13
 B,,B,, E,2 E,E, E,2 | [E,E]>[E,E] [E,B,]E, E,E,E,E, | E,E, A,4 A,2 | A,=A,B,B, B,B,B,[B,G] | %17
[M:3/4] z2 B,2 z2 | z6 |] %19
V:3
 x6 | x6 | x6 | x6 |[M:2/4] x4 |[M:1/4] x2 |[M:3/4] x6 | x6 | x6 |[M:2/4] x4 | %10
[M:4/4] B>B z B, B,B,[B,GB][B,EG] | x8 | BB z B, B,B,B,[Fc] | [DFA][DAc] E2 EE E2 | %14
 [GB]>[GB] z B, B,B,[B,GB][B,EG] | x8 | [EAd][E_Gc]EE EEEB |[M:3/4] z2 G2 z2 | x6 |] %19
V:4
 x6 | x6 | x6 | x6 |[M:2/4] x4 |[M:1/4] x2 |[M:3/4] x6 | x6 | x4[K:bass] x2 |[M:2/4] x4 | %10
[M:4/4] x8 | x8 | x8 | x8 | x8 | x8 | x8 |[M:3/4] [B,,B,][B,,B,] E,2- [E,-C][E,-C] | %18
 [E,B,]2 z2 z2 |] %19

